packages/icons/svg/24/Pencil.svg

<svg width="24" height="24" viewBox="0 0 24 24" fill="none" xmlns="http://www.w3.org/2000/svg">
<path d="M4.67415 18.1228L5.44064 14.2904L12.6885 7.04251L16.9311 11.2851L18.3453 9.87093L14.1027 5.6283L15.5169 4.21408C16.2979 3.43303 17.5643 3.43303 18.3453 4.21408L19.7596 5.6283C20.5406 6.40935 20.5406 7.67568 19.7595 8.45673L9.68328 18.533L5.85085 19.2995C5.15113 19.4394 4.53421 18.8225 4.67415 18.1228Z" fill="#858585"/>
</svg>

<svg width="24" height="24" fill="none" xmlns="http://www.w3.org/2000/svg" viewBox="0 0 24 24"><path d="M4.674 18.123l.767-3.833 7.247-7.247 4.243 4.242 1.414-1.414-4.242-4.243 1.414-1.414a2 2 0 012.828 0l1.415 1.414a2 2 0 010 2.829L9.682 18.533l-3.832.766a1 1 0 01-1.177-1.176z" fill="currentColor"></path></svg>
